outputs/icons/charts/chart_pie_outline_round.svg

<svg xmlns="http://www.w3.org/2000/svg" width="1200" height="1200" fill="none"><path fill="#000" d="M600 100c-276 0-500 224-500 500s224 500 500 500 500-224 500-500-224-500-500-500m396.5 450H650V203.5C830.5 226 974 369.5 996.5 550M200 600c0-203.5 153-372 350-396.5v793C353 972 200 803.5 200 600m450 396.5V650h346.5C974 830.5 830.5 974 650 996.5"/></svg>

<svg width="1200" height="1200" viewBox="0 0 1200 1200" fill="none" xmlns="http://www.w3.org/2000/svg"><path d="M600 100C324 100 100 324 100 600C100 876 324 1100 600 1100C876 1100 1100 876 1100 600C1100 324 876 100 600 100ZM996.5 550H650V203.5C830.5 226 974 369.5 996.5 550ZM200 600C200 396.5 353 228 550 203.5V996.5C353 972 200 803.5 200 600ZM650 996.5V650H996.5C974 830.5 830.5 974 650 996.5Z" fill="black"/></svg>
